X:1
T:Title
%%score { ( 1 4 ) | ( 2 3 ) }
L:1/8
M:3/4
K:Eb
V:1 treble nm="Grand Piano"
V:4 treble 
V:2 bass 
V:3 bass 
V:1
 z2 z2[Q:1/4=100] [EG][FA] | [GB]2 [Ac]2 [GB]2 | G2 E2 GA | [EGB]2 [Ge]2 [Ac]2 | [GB]4 [GB][GB] | %5
 c2 d2 e2 | [Ac]2 [GB]2 G2 | B2 A2 G2 | [DF]4 [EG][FA] | [GB]2 [Ac]2 [GB]2 | G2 E2 GA | %11
 [EGB]2 [Ge]2 [GB]2 | c4 cd | e2 d2 c2 | [GB]2 G2 z F | [EG]2 [EG]2 [DF]2 |[M:2/4] E4 |[M:1/4] G2 | %18
[M:3/4] [DF]2 [DF]2 [EG]2 | [FA]4 [DB][FA] | [EG]2 [EG]2 [FA]2 | [GB]4 [GB][GB] | %22
 [Ac]2 [ce]2 [EAc]2 |[M:7/8] [EGB]2 [B,EG]3 [=A,E]2 |[M:3/4] [B,EG]2 [B,EG]2 [A,DF]2 | %25
[M:2/4] [G,E]4 |] %26
V:2
 z2 z2 [E,B,][E,B,] | [E,E]2 [E,E]2 [E,E]2 | z2 z2 .E2 | E,2 [E,B,]2 [E,C]2 | [E,E]4 [E,E][E,E] | %5
 [A,EA]2 [A,DA]2 [A,CA]2 | [E,E]2 [E,E]2 [E,B,E]2 | [G,B,E]2 [F,B,D]2 [E,B,E]2 | %8
 [B,,B,]4 [E,B,][E,B,] | [E,E]2 [E,E]2 [E,E]2 | z2 z2 .E2 | E,2 [E,B,]2 [E,E]2 | %12
 [A,EA]4 [A,EA][A,DA] | [A,CA]2 [A,CA]2 [A,EA]2 | [E,E]2 [E,B,E]2 [C,=A,]2 | %15
 [B,,B,]2 [B,,B,]2 [B,,A,]2 |[M:2/4] [E,G,]4 |[M:1/4] [E,B,E]2 | %18
[M:3/4] [B,,B,]2 [B,,B,]2 [B,,B,]2 | [B,,B,]4 [B,,B,][B,,B,] | [E,B,]2 [E,B,]2 [E,B,]2 | %21
 [E,E]4 [E,E][E,E] | [A,E]2 [A,C]2 A,2 |[M:7/8] E,2 E,3 z F |[M:3/4] B,,2 B,,2 B,,2 |[M:2/4] E,4 |] %26
V:3
 x6 | x6 | [E,B,E]2 [E,G,]2 [E,B,]-[E,B,F] | x6 | x6 | x6 | x6 | x6 | x6 | x6 | %10
 [E,B,E]2 [E,G,]2 [E,B,]-[E,B,F] | x6 | x6 | x6 | x6 | x6 |[M:2/4] x4 |[M:1/4] x2 |[M:3/4] x6 | %19
 x6 | x6 | x6 | x6 |[M:7/8] z z z z2 C,2 |[M:3/4] x6 |[M:2/4] x4 |] %26
V:4
 x6 | x6 | x6 | x6 | x6 | x6 | x6 | x6 | x6 | x6 | x6 | x6 | x6 | x6 | z2 z2 E2 | x6 |[M:2/4] x4 | %17
[M:1/4] x2 |[M:3/4] x6 | x6 | x6 | x6 | x6 |[M:7/8] x7 |[M:3/4] x6 |[M:2/4] x4 |] %26

